packages/kaspersky-hexa-ui-icons/src/iconsSVGs/16x12/FlagSn.svg

<svg width="16" height="12" viewBox="0 0 16 12" fill="none" xmlns="http://www.w3.org/2000/svg">
<g clip-path="url(#clip0_41818_3689)">
<rect width="16" height="12" rx="2" fill="white"/>
<mask id="mask0_41818_3689" style="mask-type:luminance" maskUnits="userSpaceOnUse" x="0" y="0" width="16" height="12">
<rect width="16" height="12" rx="2" fill="white"/>
</mask>
<g mask="url(#mask0_41818_3689)">
<rect x="7.61902" width="8.38095" height="12" fill="#F13642"/>
<path fill-rule="evenodd" clip-rule="evenodd" d="M0 12H5.33333V0H0V12Z" fill="#17A052"/>
<path fill-rule="evenodd" clip-rule="evenodd" d="M5.33337 12H10.6667V0H5.33337V12Z" fill="#FFF166"/>
<path fill-rule="evenodd" clip-rule="evenodd" d="M7.99998 6.6978L6.88039 7.46125L7.25725 6.15575L6.18844 5.32208L7.54094 5.27869L7.99998 4L8.45901 5.27869L9.81151 5.32208L8.74271 6.15575L9.11957 7.46125L7.99998 6.6978Z" fill="#17A052"/>
</g>
</g>
<defs>
<clipPath id="clip0_41818_3689">
<rect width="16" height="12" fill="white"/>
</clipPath>
</defs>
</svg>

<svg xmlns="http://www.w3.org/2000/svg" width="16" height="12" fill="none" viewBox="0 0 16 12"><g clip-path="url(#a)"><rect width="16" height="12" fill="#fff" rx="2"/><mask id="b" width="16" height="12" x="0" y="0" maskUnits="userSpaceOnUse" style="mask-type:luminance"><rect width="16" height="12" fill="#fff" rx="2"/></mask><g mask="url(#b)"><path fill="#f13642" d="M7.619 0H16v12H7.619z"/><path fill="#17a052" fill-rule="evenodd" d="M0 12h5.3333V0H0z" clip-rule="evenodd"/><path fill="#fff166" fill-rule="evenodd" d="M5.3334 12h5.3333V0H5.3334z" clip-rule="evenodd"/><path fill="#17a052" fill-rule="evenodd" d="m8 6.6978-1.1196.7634.3769-1.3054-1.0689-.8337 1.3525-.0434L8 4l.4591 1.2787 1.3525.0434-1.0688.8337.3769 1.3054z" clip-rule="evenodd"/></g></g><defs><clipPath id="a"><path fill="#fff" d="M0 0h16v12H0z"/></clipPath></defs></svg>
